build/static/img/promo-icon.svg

<svg width="6" height="11" viewBox="0 0 6 11" fill="none" xmlns="http://www.w3.org/2000/svg">
<path fill-rule="evenodd" clip-rule="evenodd" d="M0.979908 10.9059L5.81597 5.95456C6.06134 5.7035 6.06134 5.2965 5.81597 5.04544L0.979908 0.0941471C0.857379 -0.0313824 0.65843 -0.0313824 0.535902 0.0941471L0.0918961 0.548706C-0.030632 0.674235 -0.030632 0.877735 0.0918961 1.00326L4.26227 5.27256C4.38479 5.39809 4.38479 5.60191 4.26227 5.72712L0.0918961 9.99674C-0.030632 10.1223 -0.030632 10.3258 0.0918961 10.4513L0.535902 10.9059C0.65843 11.0314 0.857379 11.0314 0.979908 10.9059Z" fill="white"/>
</svg>

<svg width="6" height="11" fill="none" xmlns="http://www.w3.org/2000/svg"><path fill-rule="evenodd" clip-rule="evenodd" d="M.98 10.906l4.836-4.951a.653.653 0 0 0 0-.91L.98.095a.309.309 0 0 0-.444 0L.092.548a.327.327 0 0 0 0 .454l4.17 4.27a.327.327 0 0 1 0 .454l-4.17 4.27a.327.327 0 0 0 0 .454l.444.455a.309.309 0 0 0 .444 0z" fill="#fff"/></svg>
